localPackages/DesignSystem/Sources/DesignSystem/Resources/Assets.xcassets/IconSet/ic-bookmark-filled.imageset/ic-bookmark-filled.svg

<svg width="24" height="24" viewBox="0 0 24 24" fill="none" xmlns="http://www.w3.org/2000/svg">
<g id="ic-bookmark-filled">
<path id="Icon" d="M3 5.1C3 3.83988 3 3.20982 3.24524 2.72852C3.46095 2.30516 3.80516 1.96095 4.22852 1.74524C4.70982 1.5 5.33988 1.5 6.6 1.5H17.4C18.6601 1.5 19.2902 1.5 19.7715 1.74524C20.1948 1.96095 20.539 2.30516 20.7548 2.72852C21 3.20982 21 3.83988 21 5.1V19.8862C21 21.1766 21 21.8218 20.7448 22.1205C20.5234 22.3798 20.1913 22.5173 19.8514 22.4906C19.4598 22.4598 19.0035 22.0035 18.0911 21.0911L12.3394 15.3394C12.2206 15.2206 12.1612 15.1612 12.0927 15.1389C12.0325 15.1194 11.9675 15.1194 11.9073 15.1389C11.8388 15.1612 11.7794 15.2206 11.6606 15.3394L5.90891 21.0911C4.99647 22.0035 4.54025 22.4598 4.14856 22.4906C3.8087 22.5173 3.47657 22.3798 3.25517 22.1205C3 21.8218 3 21.1766 3 19.8862L3 5.1Z" fill="#0F0F0F"/>
</g>
</svg>

<svg xmlns="http://www.w3.org/2000/svg" width="24" height="24" viewBox="0 0 24 24">
  <g class="ic-bookmark-filled">
    <path d="M3 5.1c0-1.26 0-1.89.245-2.371a2.25 2.25 0 0 1 .984-.984C4.709 1.5 5.339 1.5 6.6 1.5h10.8c1.26 0 1.89 0 2.372.245.423.216.767.56.983.984C21 3.209 21 3.839 21 5.1v14.786c0 1.29 0 1.936-.255 2.235a1.07 1.07 0 0 1-.894.37c-.391-.031-.848-.488-1.76-1.4L12.34 15.34c-.118-.118-.178-.178-.246-.2a.301.301 0 0 0-.186 0c-.068.022-.128.082-.246.2L5.91 21.092c-.913.912-1.369 1.369-1.76 1.4a1.07 1.07 0 0 1-.894-.37C3 21.82 3 21.177 3 19.886V5.1Z" class="Icon"/>
  </g>
</svg>
